X:1
T:Title
%%score { ( 1 3 4 ) | ( 2 5 6 ) }
L:1/8
Q:1/4=126
M:4/4
K:Bb
V:1 treble nm="Grand Piano"
V:3 treble 
V:4 treble 
V:2 bass 
V:5 bass 
V:6 bass 
V:1
 d2 d2 d2 d2 | [Fd]2 [Fd]2 [Fd]2 [Fd]2 | [Fd]4 [DB]4 | [B,DF]2 [F,DF]2 [B,DF]2 [B,DF]2 | %4
w: Chas.~H.~Gabriel * * *||||
 [A,EF]6 [FA]B | [EAc]2 [E_Ac]2 [EGc]2 [E^Fc]2 | c3 B [EFA]4 | [B,FB]2 [B,F]2 [A,F]2 [A,E]2 | %8
w: ||||
 [B,D]6 [DB]c | [Fd]2 [Fd]2 [Fd]2 [Fd]2 | d3 c [DGB]4 | [CGc]2 [C=Ec]2 [CGc]2 [CEc]2 | c3 B z2 E2 | %13
w: |||||
 [DB]2 [G=B]2 [Gc]2 [FGd]2 |[M:2/4] [Ge]2 [FGd]2 | [CEGc]2 [_DGB]2 | %16
w: |||
[M:4/4] [DFB]2 [FB]2 [EA]2 [EA]2 | [DB]6 z2 | [DF]4 z4 | [EA]2 [EA]2 .[EA]2 [F,EF]2 | %20
w: ||||
 [Ec]4 [EA]2 F2 | [Fd]6[K:bass] B,,2 | B2 =B2 [Gc]2 [FGd]2 | [Ge]2 [FGd]2 [CEGc]2 [_DGB]2 | %24
w: ||||
 [DFB]2 [DFB]2 [CFA]2 [EFA]2 | [DB]6 z2 |] %26
w: ||
V:2
 D2 D2 D2 D2 | [B,,B,]2 [B,,F,]2 [B,,B,]2 [B,,F,]2 | [B,,B,]2 z E B,,G,F,D, | %3
 B,,2 B,,2 =B,,2 B,,2 | C,2 F,,2 A,,2 z G | F,2 ^F,2 G,2 _A,2 | A,F,A,B, C,A,F,E, | %7
 D,2 D,_D, C,2 F,,2 | z4 z2 F,2 | B,2 B,,2 D,2 F,2 | ^F,D,=E,F, G,A,B,G, | =E,2 C,2 E,2 G,B, | %12
 z4 z2 C2 | G,2 [F,F]2 [E,E]2 [D,=B,]2 |[M:2/4] [C,C]2 [D,=B,]2 | E,2 =E,2 |[M:4/4] z2 D2 z4 | %17
 B,,G,F,D, B,,2 z2 | z2 F,2 z2 F,2 | C,2 F,,2 z G F,,2 | A,,2 F,,2 C,F,G,A, | B,2 F,2 D,2 z2 | %22
 [G,D]2 [F,F]2 [E,E]2 [D,=B,]2 | [C,C]2 [D,=B,]2 E,2 =E,2 | F,2 F,G, F,E,D,C, | B,,6 z2 |] %26
V:3
 x8 | x8 | z2 z c .B,2 z2 | x8 | x8 | x8 | [EF]4 .C2 z2 | x8 | x8 | x8 | [DA]4 z4 | x8 | [CF]4 A4 | %13
 x8 |[M:2/4] x4 | x4 |[M:4/4] x8 | x8 | B,2 z2 [B,DB]2 [DG]2 | x8 | x8 | x6[K:bass] x2 | x8 | x8 | %24
 x8 | x8 |] %26
V:4
 x8 | x8 | z2 F,2 z4 | x8 | x8 | x8 | x8 | x8 | x8 | x8 | x8 | x8 | x8 | x8 |[M:2/4] x4 | x4 | %16
[M:4/4] x8 | x8 | x8 | x8 | x8 | x6[K:bass] x2 | x8 | x8 | x8 | x8 |] %26
V:5
 x8 | x8 | z2 B,,2 z4 | x8 | z4 z2 C,2 | x8 | x8 | x8 | B,,2 B,,2 D,2 z E | x8 | x8 | x8 | %12
 A,B,A,G, [CF]2 z ^F, | x8 |[M:2/4] x4 | x4 |[M:4/4] F,4 z4 | x8 | B,,4 B,,4 | z4 C,2 z2 | x8 | %21
 x8 | x8 | x8 | x8 | x8 |] %26
V:6
 x8 | x8 | x8 | x8 | x8 | x8 | x8 | x8 | x8 | x8 | x8 | x8 | z4 F,4 | x8 |[M:2/4] x4 | x4 | %16
[M:4/4] z2 z G, F,E,D,C, | x8 | x8 | x8 | x8 | x8 | x8 | x8 | x8 | x8 |] %26

